X:85
T:85 The Villagers
C:Welch MS
I:abc2nwc
M:6/8
L:1/8
K:G
d/2c/2|B2B cBc|dBG AFD|G2G A2A|Bcd A2d/2c/2|
B2B cBc|dBG AFD|G2G A2B|cAF G2:|
d/2c/2|B2d ded|g2d ded|B2d B2c|
dcB A2d|B2d ded|g2d ded|B2d B2d|cBA G2:|


